static/monitor.svg

<?xml version="1.0" encoding="utf-8"?><!-- Uploaded to: SVG Repo, www.svgrepo.com, Generator: SVG Repo Mixer Tools -->
<svg width="800px" height="800px" viewBox="0 0 24 24" fill="none" xmlns="http://www.w3.org/2000/svg">
<path d="M9 18V21M15 18V21M7 21H17M3 12H21M12 15H12.01M6.2 18H17.8C18.9201 18 19.4802 18 19.908 17.782C20.2843 17.5903 20.5903 17.2843 20.782 16.908C21 16.4802 21 15.9201 21 14.8V6.2C21 5.0799 21 4.51984 20.782 4.09202C20.5903 3.71569 20.2843 3.40973 19.908 3.21799C19.4802 3 18.9201 3 17.8 3H6.2C5.0799 3 4.51984 3 4.09202 3.21799C3.71569 3.40973 3.40973 3.71569 3.21799 4.09202C3 4.51984 3 5.07989 3 6.2V14.8C3 15.9201 3 16.4802 3.21799 16.908C3.40973 17.2843 3.71569 17.5903 4.09202 17.782C4.51984 18 5.07989 18 6.2 18Z" stroke="#000000" stroke-width="2" stroke-linecap="round" stroke-linejoin="round"/>
</svg>

<svg xmlns="http://www.w3.org/2000/svg" width="800" height="800" fill="none" viewBox="0 0 24 24"><path stroke="currentColor" stroke-linecap="round" stroke-linejoin="round" stroke-width="2" d="M9 18v3m6-3v3m-8 0h10M3 12h18m-9 3zM6.2 18h11.6c1.12 0 1.68 0 2.1-.22a2 2 0 0 0 .88-.87c.22-.43.22-.99.22-2.11V6.2c0-1.12 0-1.68-.22-2.1a2 2 0 0 0-.87-.88C19.48 3 18.92 3 17.8 3H6.2c-1.12 0-1.68 0-2.1.22a2 2 0 0 0-.88.87C3 4.52 3 5.08 3 6.2v8.6c0 1.12 0 1.68.22 2.1q.3.58.87.88c.43.22.99.22 2.11.22"/></svg>
